X:1
T:Down in my Sally's Garden
M:4/4
L:1/8
K:G
G-A| B2A-G B2 d2| e2 d4B-G| A2B-G A3 G| G4 z2G-A| B2A-G A2B-d| e2 d4B-G|\
 A2 BA G4|E-G G4||
